X: 5778
T: Caisleán An Óir
R: hornpipe
M: 4/4
K: Adorian
AG|EA AG A2 (3Bcd|ed ef g2 ab|ag ed Be dB|A2 GE G2 ED|
EA AB A2 (3Bcd|ed ef g2 ab|ag ed Be dB|A2 AG A2:|:(3Bcd||
ea ab c'2 ba|ag ef g2 ab|ag ed Be dB|A2 GE G2 ED|
EA (3GAB A2 (3Bcd|ed ef g2 ab|ag ed Be dB|A2 AG A2:|

